docs/abcrace/images/numbers/zero.svg

<svg xmlns="http://www.w3.org/2000/svg" width="600" height="874" viewBox="-10 0 600 874"><path fill="currentColor" d="M298 0q214 0 272 237 20 82 20 188 0 253-116 371-77 78-194 78Q64 874 8 629q-18-80-18-182 0-260 120-375Q185 0 298 0Zm-3 86q-126 0-174 161-25 83-25 198 1 342 185 343 121 0 173-148 30-87 30-212 0-324-170-341-10-1-19-1Z"/></svg>

<svg xmlns="http://www.w3.org/2000/svg" xmlns:svg="http://www.w3.org/2000/svg" id="svg4" width="600" height="874" version="1.1" viewBox="-10 0 600 874"><path id="path2" fill="currentColor" d="m 298,0 q 214,0 272,237 20,82 20,188 0,253 -116,371 -77,78 -194,78 Q 64,874 8,629 -10,549 -10,447 -10,187 110,72 185,0 298,0 Z m -3,86 Q 169,86 121,247 96,330 96,445 97,787 281,788 402,788 454,640 484,553 484,428 484,104 314,87 304,86 295,86 Z"/></svg>
